X:673
T:Reel 673
M:4/4
K:Dmaj
L:1/8
AG|FDA,D CECE|DFAF d2Ad| (3Bcd AG FGEC|A,B,CD D2:|AG|FDAF dBAF| (3FED AD B2AG|FDDF AB=cA|GEFD C2AG|FDAF dcBA|FDAF d2AG|FDFG ADFD|CDB,C D2|
